X: 30
T: Old Bunch of Keys
B: canberra pickers and fiddlers
B: tunes
M:C|
L:1/8
Q: 1/4=100
K:A
V:1 
|:ef=gf edcd|e=g a2 a2ag|ef=gf efec|BA=GE A4:|
|:AAA2 c3c|BA=GA BA=GE|AAA2 c2cc|BA=G2 A4:||
% abcbook-tune_id 63da59344dcdc192db34b23b
% abcbook-tune_composer_id 
% abcbook-link-0 https://www.youtube.com/watch?v=24DuOQzeSBo
% abcbook-link-title-0 Old Bunch of Keys - Emily Schaad and Gabrielle Macrae at Augusta Old Time Week 2016
% abcbook-boost 8
% abcbook-difficulty 0
% abcbook-tags canberra pickers and fiddlers,old time tunes,© free
% abcbook-tablature 
% abcbook-transpose 
% abcbook-tuning AEAE
% abcbook-lastupdated 1730276220424
% abcbook-src-url https://tunebook.net/scrape/tunes.abc
% abcbook-soundfonts 
% abcbook-repeats 1
%%gchordfont "itim-music,Itim" 20

